packages/match-icons/product/svg/runtime.svg

<svg fill="none" height="32" viewBox="0 0 32 32" width="32" xmlns="http://www.w3.org/2000/svg"><g fill="#394762"><path d="m31.12 10.71-1.83-1.82998c-.5621-.56277-1.3246-.8793-2.12-.88h-2.62c-.2798.00033-.5543-.07711-.7926-.22367-.2384-.14656-.4314-.35648-.5574-.60633l-.48-1c-.3373-.65557-.8492-1.20517-1.4792-1.58811s-1.3536-.58431-2.0908-.58189h-6.3c-.7414.00132-1.4679.20869-2.0983.59893-.6304.39025-1.13992.94803-1.4717 1.61107l-.48 1c-.13145.24239-.32675.44416-.56474.58343-.23798.13926-.50955.2107-.78526.20657h-2.62c-.79538.0007-1.55793.31723-2.12.88l-1.83 1.82998c-.56277.5621-.87929979 1.3246-.88 2.12v13.67c0 .6631.263392 1.2989.732233 1.7678.468837.4688 1.104727.7322 1.767767.7322h27c.663 0 1.2989-.2634 1.7678-.7322.4688-.4689.7322-1.1047.7322-1.7678v-13.67c-.0007-.7954-.3172-1.5579-.88-2.12zm-20-3.59998c.1609-.32426.4068-.59877.7115-.79425s.6567-.30461 1.0185-.31575h6.3c.3704.00205.7329.10692 1.0472.3029.3143.19599.568.4754.7328.8071l.45.89h-10.76zm-8.78 4.99998 1.83-1.83c.18034-.1679.41396-.267.66-.28h22.34c.2648.0037.5184.1073.71.29l1.83 1.83c.0927.0935.166.2043.2158.3261.0497.1219.075.2523.0742.3839v1.17h-11c0-.2652-.1054-.5195-.2929-.7071-.1875-.1875-.4419-.2929-.7071-.2929h-4c-.2652 0-.5196.1054-.7071.2929-.1875.1876-.2929.4419-.2929.7071h-11v-1.17c-.00076-.1316.02446-.262.07423-.3839.04976-.1218.12309-.2326.21577-.3261zm27.16 14.89h-27c-.13261 0-.25979-.0527-.35355-.1464-.09377-.0938-.14645-.221-.14645-.3536v-10.5h28v10.5c0 .1326-.0527.2598-.1464.3536-.0938.0937-.221.1464-.3536.1464z"/><path d="m22 25c-.1316.0008-.2621-.0245-.3839-.0742-.1218-.0498-.2327-.1231-.3261-.2158-.0937-.093-.1681-.2036-.2189-.3254-.0508-.1219-.0769-.2526-.0769-.3846s.0261-.2627.0769-.3846c.0508-.1218.1252-.2324.2189-.3254l1.44-1.44c.0478-.0449.086-.0991.112-.1593.0261-.0602.0395-.1251.0395-.1907s-.0134-.1305-.0395-.1907c-.026-.0602-.0642-.1144-.112-.1593l-1.44-1.44c-.1883-.1883-.2941-.4437-.2941-.71s.1058-.5217.2941-.71.4437-.2941.71-.2941.5217.1058.71.2941l1.44 1.44c.4678.4703.7303 1.1067.7303 1.77s-.2625 1.2997-.7303 1.77l-1.44 1.44c-.0934.0927-.2043.166-.3261.2158-.1218.0497-.2523.075-.3839.0742z"/><path d="m10 25c-.13158.0008-.26204-.0245-.38388-.0742-.12184-.0498-.23265-.1231-.32609-.2158l-1.44-1.44c-.46777-.4703-.73034-1.1067-.73034-1.77s.26257-1.2997.73034-1.77l1.44-1.44c.09324-.0932.20393-.1672.32575-.2177.12182-.0504.25239-.0764.38422-.0764.1319 0 .2625.026.3843.0764.1218.0505.2325.1245.3257.2177.0933.0932.1672.2039.2177.3258.0504.1218.0764.2523.0764.3842s-.026.2624-.0764.3843c-.0505.1218-.1244.2325-.2177.3257l-1.43997 1.44c-.04783.0449-.08596.0991-.11202.1593s-.0395.1251-.0395.1907.01344.1305.0395.1907.06419.1144.11202.1593l1.43997 1.44c.0938.093.1681.2036.2189.3254.0508.1219.0769.2526.0769.3846s-.0261.2627-.0769.3846c-.0508.1218-.1251.2324-.2189.3254-.0934.0927-.2042.166-.3261.2158-.1218.0497-.2523.075-.3839.0742z"/><path d="m15 25.0001c-.1312.0033-.2613-.0241-.38-.08-.1288-.0425-.2475-.1106-.3491-.2003-.1016-.0898-.1839-.1992-.2419-.3218-.058-.1225-.0905-.2555-.0955-.391-.0049-.1354.0177-.2705.0665-.3969l2.1-5c.1036-.2414.2981-.4323.5413-.5315.2433-.0992.5158-.0987.7587.0015.127.0444.2436.114.3431.2047.0994.0906.1795.2003.2355.3226s.0868.2547.0905.3892c.0037.1344-.0198.2683-.0691.3934l-2.1 5c-.0752.1777-.2002.3298-.3599.438-.1597.1083-.3472.168-.5401.1721z"/></g></svg>

<svg width="32" height="32" viewBox="0 0 32 32" fill="none" xmlns="http://www.w3.org/2000/svg">
<path d="M31.12 10.71L29.29 8.88002C28.7279 8.31725 27.9654 8.00072 27.17 8.00002H24.55C24.2702 8.00035 23.9957 7.92291 23.7574 7.77635C23.519 7.62979 23.326 7.41987 23.2 7.17002L22.72 6.17002C22.3827 5.51445 21.8708 4.96485 21.2408 4.58191C20.6108 4.19897 19.8872 3.9976 19.15 4.00002H12.85C12.1086 4.00134 11.3821 4.20871 10.7517 4.59895C10.1213 4.9892 9.61178 5.54698 9.28 6.21002L8.8 7.21002C8.66855 7.45241 8.47325 7.65418 8.23526 7.79345C7.99728 7.93271 7.72571 8.00415 7.45 8.00002H4.83C4.03462 8.00072 3.27207 8.31725 2.71 8.88002L0.88 10.71C0.31723 11.2721 0.000700208 12.0346 0 12.83L0 26.5C0 27.1631 0.263392 27.7989 0.732233 28.2678C1.20107 28.7366 1.83696 29 2.5 29H29.5C30.163 29 30.7989 28.7366 31.2678 28.2678C31.7366 27.7989 32 27.1631 32 26.5V12.83C31.9993 12.0346 31.6828 11.2721 31.12 10.71V10.71ZM11.12 7.11002C11.2809 6.78576 11.5268 6.51125 11.8315 6.31577C12.1362 6.12029 12.4882 6.01116 12.85 6.00002H19.15C19.5204 6.00207 19.8829 6.10694 20.1972 6.30292C20.5115 6.49891 20.7652 6.77832 20.93 7.11002L21.38 8.00002H10.62L11.12 7.11002ZM2.34 12.11L4.17 10.28C4.35034 10.1121 4.58396 10.013 4.83 10H27.17C27.4348 10.0037 27.6884 10.1073 27.88 10.29L29.71 12.12C29.8027 12.2135 29.876 12.3243 29.9258 12.4461C29.9755 12.568 30.0008 12.6984 30 12.83V14H19C19 13.7348 18.8946 13.4805 18.7071 13.2929C18.5196 13.1054 18.2652 13 18 13H14C13.7348 13 13.4804 13.1054 13.2929 13.2929C13.1054 13.4805 13 13.7348 13 14H2V12.83C1.99924 12.6984 2.02446 12.568 2.07423 12.4461C2.12399 12.3243 2.19732 12.2135 2.29 12.12L2.34 12.11ZM29.5 27H2.5C2.36739 27 2.24021 26.9473 2.14645 26.8536C2.05268 26.7598 2 26.6326 2 26.5V16H30V26.5C30 26.6326 29.9473 26.7598 29.8536 26.8536C29.7598 26.9473 29.6326 27 29.5 27Z" fill="#394762"/>
<path d="M22 25C21.8684 25.0008 21.7379 24.9755 21.6161 24.9258C21.4943 24.876 21.3834 24.8027 21.29 24.71C21.1963 24.617 21.1219 24.5064 21.0711 24.3846C21.0203 24.2627 20.9942 24.132 20.9942 24C20.9942 23.868 21.0203 23.7373 21.0711 23.6154C21.1219 23.4936 21.1963 23.383 21.29 23.29L22.73 21.85C22.7778 21.8051 22.816 21.7509 22.842 21.6907C22.8681 21.6305 22.8815 21.5656 22.8815 21.5C22.8815 21.4344 22.8681 21.3695 22.842 21.3093C22.816 21.2491 22.7778 21.1949 22.73 21.15L21.29 19.71C21.1017 19.5217 20.9959 19.2663 20.9959 19C20.9959 18.7337 21.1017 18.4783 21.29 18.29C21.4783 18.1017 21.7337 17.9959 22 17.9959C22.2663 17.9959 22.5217 18.1017 22.71 18.29L24.15 19.73C24.6178 20.2003 24.8803 20.8367 24.8803 21.5C24.8803 22.1633 24.6178 22.7997 24.15 23.27L22.71 24.71C22.6166 24.8027 22.5057 24.876 22.3839 24.9258C22.2621 24.9755 22.1316 25.0008 22 25Z" fill="#394762"/>
<path d="M10 25C9.86842 25.0008 9.73796 24.9755 9.61612 24.9258C9.49428 24.876 9.38347 24.8027 9.29003 24.71L7.85003 23.27C7.38226 22.7997 7.11969 22.1633 7.11969 21.5C7.11969 20.8367 7.38226 20.2003 7.85003 19.73L9.29003 18.29C9.38327 18.1968 9.49396 18.1228 9.61578 18.0723C9.7376 18.0219 9.86817 17.9959 10 17.9959C10.1319 17.9959 10.2625 18.0219 10.3843 18.0723C10.5061 18.1228 10.6168 18.1968 10.71 18.29C10.8033 18.3832 10.8772 18.4939 10.9277 18.6158C10.9781 18.7376 11.0041 18.8681 11.0041 19C11.0041 19.1319 10.9781 19.2624 10.9277 19.3843C10.8772 19.5061 10.8033 19.6168 10.71 19.71L9.27003 21.15C9.2222 21.1949 9.18407 21.2491 9.15801 21.3093C9.13195 21.3695 9.11851 21.4344 9.11851 21.5C9.11851 21.5656 9.13195 21.6305 9.15801 21.6907C9.18407 21.7509 9.2222 21.8051 9.27003 21.85L10.71 23.29C10.8038 23.383 10.8781 23.4936 10.9289 23.6154C10.9797 23.7373 11.0058 23.868 11.0058 24C11.0058 24.132 10.9797 24.2627 10.9289 24.3846C10.8781 24.5064 10.8038 24.617 10.71 24.71C10.6166 24.8027 10.5058 24.876 10.3839 24.9258C10.2621 24.9755 10.1316 25.0008 10 25Z" fill="#394762"/>
<path d="M15 25.0001C14.8688 25.0034 14.7387 24.976 14.62 24.9201C14.4912 24.8776 14.3725 24.8095 14.2709 24.7198C14.1693 24.63 14.087 24.5206 14.029 24.398C13.971 24.2755 13.9385 24.1425 13.9335 24.007C13.9286 23.8716 13.9512 23.7365 14 23.6101L16.1 18.6101C16.2036 18.3687 16.3981 18.1778 16.6413 18.0786C16.8846 17.9794 17.1571 17.9799 17.4 18.0801C17.527 18.1245 17.6436 18.1941 17.7431 18.2848C17.8425 18.3754 17.9226 18.4851 17.9786 18.6074C18.0346 18.7297 18.0654 18.8621 18.0691 18.9966C18.0728 19.131 18.0493 19.2649 18 19.39L15.9 24.39C15.8248 24.5677 15.6998 24.7198 15.5401 24.828C15.3804 24.9363 15.1929 24.996 15 25.0001Z" fill="#394762"/>
</svg>
